X:2 
C:J.Colombo et T.Murena
T:Indifference (Valse musette)
A:France WW2
I:Rights for public performance
Q:1/4=200
M:3/4 
P:IABACA
K:G
P:I
z B eg bd' |(3"Em"c'd'c'b4 |z B eg bd' |(3"B7"c'd'c' b4 |
z B ^df ab |(3c'd'c' c'2 (3e'f'e' |^d'2 (3c'=d'c' b2 |b6-|bB eg bd' ||
P:A
(3"Em"c'd'c' b4 |bB eg bd' |(3c'd'c' b4 |\
z B eg bd' |c'b \^ed fe |gf ag fe |(3"B7"ef\^ed4 |
z2 ag fe |f3 \^ede |^d3 c Bc |B6 |\
z2 ag fe |fe ^de ^dc |Bc BA GF |(3"Em"FGF E4 |
EB eg bd' |(3c'd'c' b4 |z B eg bd' |(3c'd'c' b4 |\
z B eg be' |"E7"=f'e' d'c' ba |^ga bc' d'e' |(3"Am"d'e'd' c'4 |
c'2 a2 b2 |c'e' ac' f2 |z a bc' ba |"Em"be' gb e2 |\
z e fg fe |"F#9dm"g6 |(3"B7"fgf e2 ^d2 |"Em"e6 ||
P:B
z"Em" G FE|"B7"^DF Ac B^A |B^d fc' b^a |"Em"be' gb eg |\
Be gb ag |"B7"ac' fa ^df |B^d fa gf |
"Em"eg Be GB |E3 G FE |"B7"^DF Ac B^A |\
B^d fc' b^a |"Em"be' gb eg |Be gb ag |
"B7"ac' fa ^df |\
B^d fa gf |1"Em"e2 ^de gb |e'2:|2 "Em"e6 |eB eg bd'||
P:C
"Em"e2 e2 _e2 |"G"d6 |b4 b2 |"B7"b6 |^d6 |"E7"e2 ^g2 b2 |e'4 e'2|"Am"e'6 |\
a6 |"D7"d'6 |a2 b2 c'2 |"G"b6 |g6 |
"F#7"f4 f2 |f2 g2 f2 |"B"f6 |\
"D7"ff e2 _e2 |"G"d6 |b4 b2 |"B7"b6 |^d6 |"E7"e2 ^g2 b2 |e'4 e'2 |"Am"=f'6 |
e'6 |"Am"e4 e2 |"C#m dim" g2 |"G"g6 |\
"E7"d2 c2 B2 |"A7"B6 |"D7"A4 B2 |"G"G6 |GB eg bd' |]
